src/icons/tunnel.svg

<svg xmlns="http://www.w3.org/2000/svg" aria-hidden="true" viewBox="0 0 24 24"><path d="M24 9V23C24 23.2652 23.8946 23.5196 23.7071 23.7071C23.5196 23.8946 23.2652 24 23 24C22.7348 24 22.4804 23.8946 22.2929 23.7071C22.1054 23.5196 22 23.2652 22 23V9C21.998 7.1441 21.2599 5.36477 19.9476 4.05245C18.6352 2.74012 16.8559 2.00199 15 2H9C7.1441 2.00199 5.36477 2.74012 4.05245 4.05245C2.74012 5.36477 2.00199 7.1441 2 9V23C2 23.2652 1.89464 23.5196 1.70711 23.7071C1.51957 23.8946 1.26522 24 1 24C0.73478 24 0.48043 23.8946 0.29289 23.7071C0.10536 23.5196 0 23.2652 0 23V9C0.00265 6.61386 0.95171 4.32622 2.63896 2.63896C4.32622 0.95171 6.6139 0.00265 9 0H15C17.3861 0.00265 19.6738 0.95171 21.361 2.63896C23.0483 4.32622 23.9974 6.61386 24 9ZM19 9V18C18.9999 18.6934 18.7596 19.3653 18.32 19.9016C17.8804 20.4378 17.2687 20.8052 16.5888 20.9412L16.895 21.5525C16.9538 21.67 16.9888 21.798 16.9981 21.9291C17.0074 22.0601 16.9908 22.1918 16.9493 22.3164C16.9077 22.4411 16.842 22.5563 16.7559 22.6556C16.6698 22.7549 16.565 22.8362 16.4475 22.895C16.33 22.9538 16.202 22.9888 16.0709 22.9981C15.9399 23.0074 15.8082 22.9908 15.6836 22.9493C15.5589 22.9077 15.4437 22.842 15.3444 22.7559C15.2451 22.6698 15.1638 22.565 15.105 22.4475L14.3825 21H9.6175L8.895 22.4475C8.7763 22.6849 8.5682 22.8654 8.3164 22.9493C8.0647 23.0332 7.7899 23.0137 7.5525 22.895C7.3151 22.7763 7.1346 22.5682 7.0507 22.3164C6.9668 22.0647 6.9863 21.7899 7.105 21.5525L7.4113 20.9412C6.7313 20.8052 6.1196 20.4378 5.67997 19.9016C5.24038 19.3653 5.0001 18.6934 5 18V9C5 8.2044 5.31607 7.4413 5.87868 6.87868C6.4413 6.31607 7.2044 6 8 6H16C16.7956 6 17.5587 6.31607 18.1213 6.87868C18.6839 7.4413 19 8.2044 19 9ZM7 9V15H17V9C17 8.7348 16.8946 8.4804 16.7071 8.2929C16.5196 8.1054 16.2652 8 16 8H8C7.7348 8 7.4804 8.1054 7.2929 8.2929C7.1054 8.4804 7 8.7348 7 9ZM11 17V19H13V17H11ZM8 19H9V17H7V18C7 18.2652 7.1054 18.5196 7.2929 18.7071C7.4804 18.8946 7.7348 19 8 19ZM17 18V17H15V19H16C16.2652 19 16.5196 18.8946 16.7071 18.7071C16.8946 18.5196 17 18.2652 17 18Z"/></svg>

<svg xmlns="http://www.w3.org/2000/svg" aria-hidden="true" viewBox="0 0 24 24"><path d="M24 9v14a1 1 0 0 1-2 0V9a7.01 7.01 0 0 0-7-7H9a7.007 7.007 0 0 0-7 7v14a1 1 0 1 1-2 0V9a9.01 9.01 0 0 1 9-9h6a9.01 9.01 0 0 1 9 9m-5 0v9a3 3 0 0 1-2.411 2.941l.306.611a1 1 0 1 1-1.79.896L14.382 21H9.619l-.723 1.448a1 1 0 1 1-1.79-.896l.306-.61A3 3 0 0 1 5 18V9a3 3 0 0 1 3-3h8a3 3 0 0 1 3 3M7 9v6h10V9a1 1 0 0 0-1-1H8a1 1 0 0 0-1 1m4 8v2h2v-2zm-3 2h1v-2H7v1a1 1 0 0 0 1 1m9-1v-1h-2v2h1a1 1 0 0 0 1-1"/></svg>
